X: 1
T: Ciaran Benson's Delight
M: 9/8
L: 1/8
R: slip jig
K: Ador
|:EAA ABd efd|eAA AGE GED|EAA ABd efd|edc dcB ABG:|
Aee efg aga|Aee efg edB|Aee efg aga|bag agf edB|
Aee efg aga|Aee efg edB|cBc dcd ede|g2 d edB ABG||
